X:865
T: Full Sails to Greenland
S: B.Breathnach:"Ceol Rince na hEireann" IV/101 (gan ainm)
Z: B.Black
L: 1/8
M: 4/4
R: reel
K: G
Bd|gfgd BdGB|cBAG FADF|GB B2 defd|cAFA DFAd|
gfgd BdGB|(3cBA FA DFAc|BG G2 Bdgd|cAFA G2 :|
Bd|g2 fg Bdgb|(3agf gc DFAc|BGFG Bdeg|(3fga ge defd|
g2 bg dBGB|cBce FADF|BG G2 Bdgd|cAFA G2 :|
